circular-saw.svg

<svg fill="currentColor" viewBox="0 0 24 24"><path d="M13 11a1 1 0 0 1 1 1 1 1 0 0 1-1 1 1 1 0 0 1-1-1 1 1 0 0 1 1-1M7.86 6.25A7 7 0 0 1 13 4c3.5 0 6.44 2.61 6.93 6H22v2h-6a3 3 0 0 0-3-3 3 3 0 0 0-3 3H2v-2h.05c.2-2.27 1.09-4.34 2.45-6zM6.73 7.89 5.06 6.77c-.53.98-.88 2.07-1 3.23h2.01c.11-.75.33-1.46.66-2.11m.67 7.51L6 14h5.79c.24.42.71.7 1.21.7s.97-.28 1.21-.7H20v1.4c-1.61-.98-1.54.35-1.54.35v1.96l-1.96 1.96c-.5-1.75-1.4-.77-1.4-.77l-1.4 1.4h-2.8c.98-1.61-.35-1.54-.35-1.54H8.59L6.63 16.8c1.75-.49.77-1.4.77-1.4"/></svg>

<svg  viewBox="0 0 24 24" fill="currentColor"><path  d="M13,11A1,1 0 0,1 14,12A1,1 0 0,1 13,13A1,1 0 0,1 12,12A1,1 0 0,1 13,11M7.86,6.25C9.14,4.87 10.97,4 13,4C16.5,4 19.44,6.61 19.93,10H22V12H16A3,3 0 0,0 13,9A3,3 0 0,0 10,12H2V10H2.05C2.25,7.73 3.14,5.66 4.5,4L7.86,6.25M6.73,7.89L5.06,6.77C4.53,7.75 4.18,8.84 4.06,10H6.07C6.18,9.25 6.4,8.54 6.73,7.89M7.4,15.4L6,14H11.79C12.03,14.42 12.5,14.7 13,14.7C13.5,14.7 13.97,14.42 14.21,14H20V15.4C18.39,14.42 18.46,15.75 18.46,15.75V17.71L16.5,19.67C16,17.92 15.1,18.9 15.1,18.9L13.7,20.3H10.9C11.88,18.69 10.55,18.76 10.55,18.76H8.59L6.63,16.8C8.38,16.31 7.4,15.4 7.4,15.4Z"/></svg>
